img/logo.svg

<?xml version="1.0" encoding="UTF-8"?>
<svg xmlns="http://www.w3.org/2000/svg" xml:space="preserve" viewBox="0 0 248 204"><script xmlns="" id="bw-fido2-page-script"/>
  <path fill="#1d9bf0" d="M221.95 51.29c.15 2.17.15 4.34.15 6.53 0 66.73-50.8 143.69-143.69 143.69v-.04c-27.44.04-54.31-7.82-77.41-22.64 3.99.48 8 .72 12.02.73 22.74.02 44.83-7.61 62.72-21.66-21.61-.41-40.56-14.5-47.18-35.07 7.57 1.46 15.37 1.16 22.8-.87-23.56-4.76-40.51-25.46-40.51-49.5v-.64c7.02 3.91 14.88 6.08 22.92 6.32C11.58 63.31 4.74 33.79 18.14 10.71c25.64 31.55 63.47 50.73 104.08 52.76-4.07-17.54 1.49-35.92 14.61-48.25 20.34-19.12 52.33-18.14 71.45 2.19 11.31-2.23 22.15-6.38 32.07-12.26-3.77 11.69-11.66 21.62-22.2 27.93 10.01-1.18 19.79-3.86 29-7.95-6.78 10.16-15.32 19.01-25.2 26.16z"/>
</svg>

<?xml version="1.0" encoding="UTF-8" standalone="no"?>
<!DOCTYPE svg PUBLIC "-//W3C//DTD SVG 1.1//EN" "http://www.w3.org/Graphics/SVG/1.1/DTD/svg11.dtd">
<svg width="100%" height="100%" viewBox="0 0 248 204" version="1.1" xmlns="http://www.w3.org/2000/svg" xmlns:xlink="http://www.w3.org/1999/xlink" xml:space="preserve" xmlns:serif="http://www.serif.com/" style="fill-rule:evenodd;clip-rule:evenodd;stroke-linejoin:round;stroke-miterlimit:2;">
    <path d="M221.95,51.29C222.1,53.46 222.1,55.63 222.1,57.82C222.1,124.55 171.3,201.51 78.41,201.51L78.41,201.47C50.97,201.51 24.1,193.65 1,178.83C4.99,179.31 9,179.55 13.02,179.56C35.76,179.58 57.85,171.95 75.74,157.9C54.13,157.49 35.18,143.4 28.56,122.83C36.13,124.29 43.93,123.99 51.36,121.96C27.8,117.2 10.85,96.5 10.85,72.46L10.85,71.82C17.87,75.73 25.73,77.9 33.77,78.14C11.58,63.31 4.74,33.79 18.14,10.71C43.78,42.26 81.61,61.44 122.22,63.47C118.15,45.93 123.71,27.55 136.83,15.22C157.17,-3.9 189.16,-2.92 208.28,17.41C219.59,15.18 230.43,11.03 240.35,5.15C236.58,16.84 228.69,26.77 218.15,33.08C228.16,31.9 237.94,29.22 247.15,25.13C240.37,35.29 231.83,44.14 221.95,51.29Z" style="fill:url(#_Linear1);fill-rule:nonzero;"/>
    <g transform="matrix(1.73333,0,0,1.78571,-128.864,-31.2118)">
        <ellipse cx="181.931" cy="33.931" rx="6.207" ry="5.793" style="fill:white;"/>
    </g>
    <defs>
        <linearGradient id="_Linear1" x1="0" y1="0" x2="1" y2="0" gradientUnits="userSpaceOnUse" gradientTransform="matrix(-105.103,141.103,-141.103,-105.103,183.586,43.4483)"><stop offset="0" style="stop-color:rgb(29,155,240);stop-opacity:1"/><stop offset="1" style="stop-color:rgb(0,98,164);stop-opacity:1"/></linearGradient>
    </defs>
</svg>
